X: 30790
T: Ostroushko's
R: jig
M: 6/8
K: Adorian
|:e|"Am"aec Acg|"D"fdA F2D|"G"GBd ~g3|"D"fed "Bm"efg|
"Am"aec Acg|"D"fdA F2D|"F"~=F3~c3|1 "G"BAG "Am"Ac:|2 "G"BAG "Am"A2||
|:C|"C"CEG cBc|"G"BGD B,2G,|"Am"A,CE AGA|"G"GDC B,A,G,|
"Am"~A,3~C3|~E3AGE|"F"=FAc "G"dBG|1 "Am"BAA A2:|2 "Am"BAA Ac||

